assets/haskell/mono.svg

<svg viewBox="0 0 24 24" xmlns="http://www.w3.org/2000/svg"><path d="m0 3.535 5.647 8.465-5.647 8.465h4.235l5.648-8.465-5.648-8.465zm5.647 0 5.647 8.465-5.647 8.465h4.235l3.53-5.29 3.53 5.29h4.234l-11.293-16.93zm8.941 4.938 1.883 2.822h7.529v-2.822zm2.824 4.232 1.882 2.822h4.706v-2.822z"/></svg>

<svg xmlns="http://www.w3.org/2000/svg" viewBox="0 0 24 24"><path d="M0 3.535 5.647 12 0 20.465h4.235L9.883 12 4.235 3.535zm5.647 0L11.294 12l-5.647 8.465h4.235l3.53-5.29 3.53 5.29h4.234L9.883 3.535zm8.941 4.938 1.883 2.822H24V8.473zm2.824 4.232 1.882 2.822H24v-2.822z"/></svg>
